icons/eyes-surprised-21.svg

<svg xmlns="http://www.w3.org/2000/svg" viewBox="0 0 21 21"><path d="M5 5.2C2.3 5.2.2 7.3.2 10c0 2.7 2.1 4.8 4.8 4.8s4.8-2.1 4.8-4.8c0-2.7-2.1-4.8-4.8-4.8zM5 14c-2.2 0-4-1.8-4-4s1.8-4 4-4 4 1.8 4 4-1.8 4-4 4z"/><path d="M16 5.2c-2.7 0-4.8 2.1-4.8 4.8 0 2.7 2.1 4.8 4.8 4.8s4.8-2.1 4.8-4.8c0-2.7-2.1-4.8-4.8-4.8zm0 8.8c-2.2 0-4-1.8-4-4s1.8-4 4-4 4 1.8 4 4-1.8 4-4 4z"/><path d="M5 8.1c-1 0-1.9.9-1.9 1.9S4 11.8 5 11.8c1 0 1.9-.8 1.9-1.8S6 8.1 5 8.1zM6 10H5V9h1v1z"/><path d="M16 8.1c-1 0-1.9.8-1.9 1.8s.8 1.9 1.8 1.9 1.9-.8 1.9-1.8S17 8.1 16 8.1zm0 1.9h-1V9h1v1z"/></svg>

<?xml version="1.0" encoding="utf-8"?>
<!-- Generator: Adobe Illustrator 24.2.1, SVG Export Plug-In . SVG Version: 6.00 Build 0)  -->
<svg version="1.1" id="Layer_1" xmlns="http://www.w3.org/2000/svg" xmlns:xlink="http://www.w3.org/1999/xlink" x="0px" y="0px"
	 viewBox="0 0 21 21" style="enable-background:new 0 0 21 21;" xml:space="preserve">
<path d="M5,5.2c-2.7,0-4.8,2.1-4.8,4.8c0,2.7,2.1,4.8,4.8,4.8s4.8-2.1,4.8-4.8C9.8,7.3,7.7,5.2,5,5.2z M5,14c-2.2,0-4-1.8-4-4
	c0-2.2,1.8-4,4-4s4,1.8,4,4C9,12.2,7.2,14,5,14z"/>
<path d="M16,5.2c-2.7,0-4.8,2.1-4.8,4.8c0,2.7,2.1,4.8,4.8,4.8s4.8-2.1,4.8-4.8C20.8,7.3,18.7,5.2,16,5.2z M16,14c-2.2,0-4-1.8-4-4
	c0-2.2,1.8-4,4-4s4,1.8,4,4C20,12.2,18.2,14,16,14z"/>
<path d="M5,8.1C4,8.1,3.1,9,3.1,10S4,11.8,5,11.8c1,0,1.9-0.8,1.9-1.8S6,8.1,5,8.1z M6,10H5V9h1V10z"/>
<path d="M16,8.1c-1,0-1.9,0.8-1.9,1.8s0.8,1.9,1.8,1.9c1,0,1.9-0.8,1.9-1.8S17,8.1,16,8.1z M16,10h-1V9h1V10z"/>
</svg>
